X: 17005
T: Headwood Crossing
R: jig
M: 6/8
K: Cmajor
cGE ~G3|AGE GAB|cGE GAB|cde dcA|
cGE ~G3|AGE GAB|cde ~g3|eae ged:|
cde ~g3|eae ged|cde g2c|AcG AGE|
cde ~g3|~a3 gab|~a3 ged|edg edB:|

